Hatter-kde/actions/24/draw-triangle.svg

<svg xmlns="http://www.w3.org/2000/svg" viewBox="0 0 24 24">
  <defs id="defs3051">
    <style type="text/css" id="current-color-scheme">
      .ColorScheme-Text {
        color:#363636;
      }
      </style>
  </defs>
 <path style="fill:currentColor;fill-opacity:1;stroke:none" 
     d="M 3.9980469 3.9980469 L 3.9980469 5.4042969 L 3.9980469 19.998047 L 18.591797 19.998047 L 19.994141 20.001953 L 20.001953 20.001953 L 19.998047 19.998047 L 20.001953 19.994141 L 3.9980469 3.9980469 z M 4.9980469 6.4042969 L 17.591797 18.998047 L 4.9980469 18.998047 L 4.9980469 6.4042969 z "
     class="ColorScheme-Text"
     />
</svg>

<?xml version="1.0" encoding="UTF-8"?>
<svg viewBox="0 0 24 24" xmlns="http://www.w3.org/2000/svg">
 <defs id="defs3051">
  <style id="current-color-scheme" type="text/css">.ColorScheme-Text {
        color:#363636;
      }</style>
 </defs>
 <path class="ColorScheme-Text" d="m3.998 3.998v1.4062 14.594h14.594l1.4023 0.003906h0.007812l-0.003906-0.003906 0.003906-0.003906-16.004-15.996zm1 2.4062 12.594 12.594h-12.594v-12.594z" fill="currentColor"/>
</svg>
